Catalina-dark/places/scalable/folder-system.svg

<?xml version="1.0" encoding="UTF-8" standalone="no"?>
<!-- Created with Inkscape (http://www.inkscape.org/) -->

<svg
   xmlns:dc="http://purl.org/dc/elements/1.1/"
   xmlns:cc="http://creativecommons.org/ns#"
   xmlns:rdf="http://www.w3.org/1999/02/22-rdf-syntax-ns#"
   xmlns:svg="http://www.w3.org/2000/svg"
   xmlns="http://www.w3.org/2000/svg"
   xmlns:xlink="http://www.w3.org/1999/xlink"
   xmlns:sodipodi="http://sodipodi.sourceforge.net/DTD/sodipodi-0.dtd"
   xmlns:inkscape="http://www.inkscape.org/namespaces/inkscape"
   version="1.1"
   id="svg2"
   width="128"
   height="128"
   viewBox="0 0 128 128"
   sodipodi:docname="folder-system.svg"
   inkscape:version="0.92.4 5da689c313, 2019-01-14">
  <metadata
     id="metadata8">
    <rdf:RDF>
      <cc:Work
         rdf:about="">
        <dc:format>image/svg+xml</dc:format>
        <dc:type
           rdf:resource="http://purl.org/dc/dcmitype/StillImage" />
        <dc:title></dc:title>
      </cc:Work>
    </rdf:RDF>
  </metadata>
  <defs
     id="defs6">
    <linearGradient
       id="linearGradient895"
       inkscape:collect="always">
      <stop
         id="stop891"
         offset="0"
         style="stop-color:#5291bd;stop-opacity:1" />
      <stop
         style="stop-color:#5291bd;stop-opacity:1"
         offset="0.12336344"
         id="stop898" />
      <stop
         id="stop893"
         offset="1"
         style="stop-color:#5e99b9;stop-opacity:1" />
    </linearGradient>
    <linearGradient
       id="linearGradient1052"
       inkscape:collect="always">
      <stop
         id="stop1040"
         offset="0"
         style="stop-color:#66aed7;stop-opacity:1" />
      <stop
         style="stop-color:#6cb1d7;stop-opacity:1"
         offset="0.33128312"
         id="stop1042" />
      <stop
         style="stop-color:#76b6d7;stop-opacity:1"
         offset="0.5047847"
         id="stop1044" />
      <stop
         id="stop1046"
         offset="0.60396028"
         style="stop-color:#7bb6d5;stop-opacity:1" />
      <stop
         style="stop-color:#77b2d0;stop-opacity:1"
         offset="0.80198014"
         id="stop1048" />
      <stop
         id="stop1050"
         offset="1"
         style="stop-color:#6aa4c2;stop-opacity:1" />
    </linearGradient>
    <linearGradient
       inkscape:collect="always"
       id="linearGradient849">
      <stop
         style="stop-color:#608ea7;stop-opacity:1"
         offset="0"
         id="stop845" />
      <stop
         id="stop853"
         offset="0.16504955"
         style="stop-color:#5887a2;stop-opacity:1" />
      <stop
         style="stop-color:#4e7890;stop-opacity:1;"
         offset="0.29030523"
         id="stop1065" />
      <stop
         style="stop-color:#4a7289;stop-opacity:1"
         offset="0.34926009"
         id="stop855" />
      <stop
         id="stop861"
         offset="0.38956389"
         style="stop-color:#345a6c;stop-opacity:1" />
      <stop
         id="stop857"
         offset="0.44399697"
         style="stop-color:#33586d;stop-opacity:1" />
      <stop
         style="stop-color:#4e88a4;stop-opacity:0;"
         offset="1"
         id="stop847" />
    </linearGradient>
    <linearGradient
       inkscape:collect="always"
       xlink:href="#linearGradient1052"
       id="linearGradient828"
       x1="655.15594"
       y1="211.50072"
       x2="655.15594"
       y2="419.85751"
       gradientUnits="userSpaceOnUse"
       gradientTransform="matrix(0.39478084,0,0,0.39478084,-194.76369,-40.484262)" />
    <linearGradient
       inkscape:collect="always"
       xlink:href="#linearGradient849"
       id="linearGradient859"
       gradientUnits="userSpaceOnUse"
       gradientTransform="matrix(0.39478084,0,0,0.39478084,167.73039,-51.641922)"
       x1="-286.85046"
       y1="201.41634"
       x2="-286.85046"
       y2="326.29895" />
    <filter
       inkscape:label="Film Grain"
       inkscape:menu="Image Effects"
       inkscape:menu-tooltip="Adds a small scale graininess"
       style="color-interpolation-filters:sRGB"
       id="filter898">
      <feTurbulence
         type="fractalNoise"
         numOctaves="3"
         baseFrequency="1"
         seed="0"
         result="result0"
         id="feTurbulence888" />
      <feColorMatrix
         result="result4"
         values="0"
         type="saturate"
         id="feColorMatrix890" />
      <feComposite
         in="SourceGraphic"
         in2="result4"
         operator="arithmetic"
         k1="1.25"
         k2="0.5"
         k3="0.5"
         result="result2"
         id="feComposite892"
         k4="0" />
      <feBlend
         result="result5"
         mode="normal"
         in="result2"
         in2="SourceGraphic"
         id="feBlend894" />
      <feComposite
         in="result5"
         in2="SourceGraphic"
         operator="in"
         result="result3"
         id="feComposite896" />
    </filter>
    <filter
       inkscape:label="Film Grain"
       inkscape:menu="Image Effects"
       inkscape:menu-tooltip="Adds a small scale graininess"
       style="color-interpolation-filters:sRGB;"
       id="filter883">
      <feTurbulence
         type="fractalNoise"
         numOctaves="3"
         baseFrequency="1"
         seed="0"
         result="result0"
         id="feTurbulence873" />
      <feColorMatrix
         result="result4"
         values="0"
         type="saturate"
         id="feColorMatrix875" />
      <feComposite
         in="SourceGraphic"
         in2="result4"
         operator="arithmetic"
         k1="1.25"
         k2="0.5"
         k3="0.5"
         result="result2"
         id="feComposite877" />
      <feBlend
         result="result5"
         mode="normal"
         in="result2"
         in2="SourceGraphic"
         id="feBlend879" />
      <feComposite
         in="result5"
         in2="SourceGraphic"
         operator="in"
         result="result3"
         id="feComposite881" />
    </filter>
    <filter
       inkscape:label="Cross Noise"
       inkscape:menu="Overlays"
       inkscape:menu-tooltip="Adds a small scale screen like graininess"
       style="color-interpolation-filters:sRGB;"
       id="filter904">
      <feTurbulence
         type="fractalNoise"
         numOctaves="5"
         baseFrequency="1"
         seed="0"
         result="result0"
         id="feTurbulence892" />
      <feConvolveMatrix
         kernelMatrix="-2 0 -2 0 -10 0 -2 0 -2 "
         order="3 3"
         result="result5"
         id="feConvolveMatrix894" />
      <feColorMatrix
         result="result4"
         values="0"
         type="saturate"
         in="result5"
         id="feColorMatrix896" />
      <feComposite
         in2="result4"
         in="SourceGraphic"
         operator="arithmetic"
         k1="1.5"
         k2="0.5"
         k3="0.5"
         result="result2"
         id="feComposite898" />
      <feBlend
         result="result6"
         in2="result4"
         mode="normal"
         id="feBlend900" />
      <feComposite
         in2="SourceGraphic"
         in="result6"
         operator="in"
         result="result3"
         id="feComposite902" />
    </filter>
    <linearGradient
       inkscape:collect="always"
       xlink:href="#linearGradient895"
       id="linearGradient1027"
       x1="-3.2637107"
       y1="58.3326"
       x2="-3.2637107"
       y2="112.68044"
       gradientUnits="userSpaceOnUse"
       gradientTransform="translate(68.884541,-6.7637354)" />
  </defs>
  <sodipodi:namedview
     pagecolor="#ffffff"
     bordercolor="#666666"
     borderopacity="1"
     objecttolerance="10"
     gridtolerance="10"
     guidetolerance="10"
     inkscape:pageopacity="0"
     inkscape:pageshadow="2"
     inkscape:window-width="1920"
     inkscape:window-height="1031"
     id="namedview4"
     showgrid="false"
     inkscape:zoom="3.0428573"
     inkscape:cx="50.526468"
     inkscape:cy="57.105355"
     inkscape:window-x="0"
     inkscape:window-y="26"
     inkscape:window-maximized="1"
     inkscape:current-layer="svg2" />
  <path
     style="opacity:1;fill:url(#linearGradient859);fill-opacity:1;stroke:none;stroke-width:0.78956169;stroke-linecap:round;stroke-linejoin:round;stroke-miterlimit:4;stroke-dasharray:none;stroke-dashoffset:0;stroke-opacity:0.85098039;paint-order:fill markers stroke"
     d="m 7.93424,28.214947 c -3.39101,0 -6.12143,2.72966 -6.12143,6.12064 v 27.21058 c 19.29378,15.45725 121.85448,17.08511 124.92215,4.10729 v -21.8277 c 0,-3.39099 -2.73042,-6.12065 -6.12139,-6.12065 H 48.99014 c -3.59598,0 -5.76696,-4.55304 -8.20378,-7.85362 -1.09185,-1.01636 -2.5579,-1.63654 -4.17426,-1.63654 z"
     id="rect838"
     inkscape:connector-curvature="0"
     sodipodi:nodetypes="ssccssscss" />
  <path
     style="opacity:1;fill:url(#linearGradient828);fill-opacity:1;stroke:none;stroke-width:0.78956169;stroke-linecap:round;stroke-linejoin:round;stroke-miterlimit:4;stroke-dasharray:none;stroke-dashoffset:0;stroke-opacity:0.85098039;paint-order:fill markers stroke"
     d="m 8.38437,43.357317 c -3.61237,0 -6.52083,2.90771 -6.52083,6.52005 v 27.21443 42.088113 3.24383 c 0,1.81543 1.46155,3.27699 3.27699,3.27699 h 3.24384 111.81164 3.24305 c 1.81544,0 3.27699,-1.46156 3.27699,-3.27699 v -3.24383 -42.088113 -27.21443 c 0,-3.61234 -2.90771,-6.52005 -6.52004,-6.52005 z"
     id="rect817"
     inkscape:connector-curvature="0" />
  <path
     inkscape:connector-curvature="0"
     style="opacity:1;fill:#ebf5fa;fill-opacity:0.23626374;stroke:none;stroke-width:0.78956169;stroke-linecap:round;stroke-linejoin:round;stroke-miterlimit:4;stroke-dasharray:none;stroke-dashoffset:0;stroke-opacity:0.85098039;paint-order:fill markers stroke"
     d="m 8.38402,43.357187 c -3.61236,0 -6.52082,2.90772 -6.52082,6.52005 v 0.27527 c 0,-3.61233 2.90846,-6.52005 6.52082,-6.52005 h 111.81165 c 3.61232,0 6.52005,2.90772 6.52005,6.52005 v -0.27527 c 0,-3.61233 -2.90773,-6.52005 -6.52005,-6.52005 z"
     id="path904" />
  <path
     style="fill:none;stroke:#ffffff;stroke-width:0.31582469;stroke-linecap:butt;stroke-linejoin:miter;stroke-miterlimit:4;stroke-dasharray:none;stroke-opacity:0.2527473"
     d="M 2.09504,115.95084 H 126.38613"
     id="path909"
     inkscape:connector-curvature="0" />
  <g
     id="g925"
     transform="matrix(0.39478084,0,0,0.39478084,-44.90948,-40.528782)">
    <path
       inkscape:connector-curvature="0"
       id="path919"
       d="M 118.62489,404.50427 H 433.46057"
       style="fill:none;stroke:#ffffff;stroke-width:0.80000001;stroke-linecap:butt;stroke-linejoin:miter;stroke-miterlimit:4;stroke-dasharray:none;stroke-opacity:0.18681317" />
    <path
       style="fill:none;stroke:#22394c;stroke-width:0.80000001;stroke-linecap:butt;stroke-linejoin:miter;stroke-miterlimit:4;stroke-dasharray:none;stroke-opacity:0.27472528"
       d="M 118.62489,403.68267 H 433.46057"
       id="path921"
       inkscape:connector-curvature="0" />
  </g>
  <g
     id="g931"
     transform="matrix(0.39478084,0,0,0.39478084,-44.90948,-37.088532)">
    <path
       style="fill:none;stroke:#ffffff;stroke-width:0.80000001;stroke-linecap:butt;stroke-linejoin:miter;stroke-miterlimit:4;stroke-dasharray:none;stroke-opacity:0.18681317"
       d="M 118.62489,404.50427 H 433.46057"
       id="path927"
       inkscape:connector-curvature="0" />
    <path
       inkscape:connector-curvature="0"
       id="path929"
       d="M 118.62489,403.68267 H 433.46057"
       style="fill:none;stroke:#22394c;stroke-width:0.80000001;stroke-linecap:butt;stroke-linejoin:miter;stroke-miterlimit:4;stroke-dasharray:none;stroke-opacity:0.29670332" />
  </g>
  <path
     style="opacity:1;fill:url(#linearGradient1027);fill-opacity:1;stroke-width:2.2138629"
     d="M 41.747802,52.019193 60.433349,79.202787 41.753663,106.02504 h 7.955078 L 64.290772,84.812162 78.87085,106.02504 h 7.955079 L 68.146241,79.202787 86.831787,52.019193 H 79.364991 L 64.290772,73.665677 49.214599,52.019193 Z"
     id="path980-7"
     inkscape:connector-curvature="0"
     sodipodi:nodetypes="ccccccccccccc" />
  <path
     style="opacity:1;fill:#3c769e;fill-opacity:0.21428572;stroke-width:2.2138629"
     d="M 41.748047 52.019531 L 42.482422 53.087891 L 49.214844 53.087891 L 64.291016 74.734375 L 79.365234 53.087891 L 86.097656 53.087891 L 86.832031 52.019531 L 79.365234 52.019531 L 64.291016 73.666016 L 49.214844 52.019531 L 41.748047 52.019531 z M 60.064453 79.734375 L 41.753906 106.02539 L 42.498047 106.02539 L 60.433594 80.271484 L 60.064453 79.734375 z M 68.515625 79.734375 L 68.146484 80.271484 L 86.082031 106.02539 L 86.826172 106.02539 L 68.515625 79.734375 z "
     id="path955" />
</svg>

<svg width="128" height="128" version="1.1" viewBox="0 0 128 128" xmlns="http://www.w3.org/2000/svg">
<defs>
<linearGradient id="linearGradient828" x1="655.16" x2="655.16" y1="211.5" y2="419.86" gradientTransform="matrix(.39478 0 0 .39478 -194.76 -40.484)" gradientUnits="userSpaceOnUse"/>
<linearGradient id="linearGradient859" x1="-286.85" x2="-286.85" y1="201.42" y2="326.3" gradientTransform="matrix(.39478 0 0 .39478 167.73 -51.642)" gradientUnits="userSpaceOnUse"/>
<linearGradient id="linearGradient1027" x1="-3.2637" x2="-3.2637" y1="58.333" y2="112.68" gradientTransform="translate(68.885 -6.7637)" gradientUnits="userSpaceOnUse"/>
</defs>
<path d="m7.9342 28.215c-3.391 0-6.1214 2.7297-6.1214 6.1206v27.211c19.294 15.457 121.85 17.085 124.92 4.1073v-21.828c0-3.391-2.7304-6.1206-6.1214-6.1206h-71.623c-3.596 0-5.767-4.553-8.2038-7.8536-1.0918-1.0164-2.5579-1.6365-4.1743-1.6365z" fill="url(#linearGradient859)" style="paint-order:fill markers stroke"/>
<path d="m8.3844 43.357c-3.6124 0-6.5208 2.9077-6.5208 6.52v72.546c0 1.8154 1.4616 3.277 3.277 3.277h118.3c1.8154 0 3.277-1.4616 3.277-3.277v-72.546c0-3.6123-2.9077-6.52-6.52-6.52z" fill="url(#linearGradient828)" style="paint-order:fill markers stroke"/>
<path d="m8.384 43.357c-3.6124 0-6.5208 2.9077-6.5208 6.52v0.27527c0-3.6123 2.9085-6.52 6.5208-6.52h111.81c3.6123 0 6.52 2.9077 6.52 6.52v-0.27527c0-3.6123-2.9077-6.52-6.52-6.52z" fill="#ebf5fa" fill-opacity=".23626" style="paint-order:fill markers stroke"/>
<path d="m2.095 115.95h124.29" fill="none" stroke="#fff" stroke-opacity=".25275" stroke-width=".31582"/>
<g transform="matrix(.39478 0 0 .39478 -44.909 -40.529)" fill="none" stroke-width=".8">
<path d="m118.62 404.5h314.84" stroke="#fff" stroke-opacity=".18681"/>
<path d="m118.62 403.68h314.84" stroke="#22394c" stroke-opacity=".27473"/>
</g>
<g transform="matrix(.39478 0 0 .39478 -44.909 -37.089)" fill="none" stroke-width=".8">
<path d="m118.62 404.5h314.84" stroke="#fff" stroke-opacity=".18681"/>
<path d="m118.62 403.68h314.84" stroke="#22394c" stroke-opacity=".2967"/>
</g>
<path d="m41.748 52.019 18.686 27.184-18.68 26.822h7.9551l14.582-21.213 14.58 21.213h7.9551l-18.68-26.822 18.686-27.184h-7.4668l-15.074 21.646-15.076-21.646z" fill="url(#linearGradient1027)" stroke-width="2.2139"/>
<path d="m41.748 52.02 0.73438 1.0684h6.7324l15.076 21.646 15.074-21.646h6.7324l0.73438-1.0684h-7.4668l-15.074 21.646-15.076-21.646h-7.4668zm18.316 27.715-18.311 26.291h0.74414l17.936-25.754-0.36914-0.53711zm8.4512 0-0.36914 0.53711 17.936 25.754h0.74414l-18.311-26.291z" fill="#3c769e" fill-opacity=".21429" stroke-width="2.2139"/>
</svg>
